!!!COM: Anonim
!!!CDT: [?]
!!!OTL@@POL: Anyeli w niebie spiewaią
!!!TXO: Polish
!!!ODT: 
!!!GTL: Hymnbook E
!!!ARL: Opactwo św. Wojciecha, Staniątki 
!!!voices:	3
**kern	**kern	**text	**kern	**text
*staff3	*staff2	*staff2	*staff1	*staff1
*I"Basso	*I"Canto II	*	*I"Canto I	*
=1-	=1-	=1-	=1-	=1-
*clefF4	*clefG2	*	*clefG2	*
*k[]	*k[]	*	*k[]	*
*met(c|)	*met(c|)	*	*met(c|)	*
*M2/2	*M2/2	*	*M2/2	*
4G	4b	A-	4dd	A-
8G	8g	-nie-	8b	-nie-
8F#	8a	-li	8cc	-li
4G	4b	w~nie-	4dd	w~nie-
4E	4cc	-bie	4ee	-bie
=2	=2	=2	=2	=2
4F	4cc	śpie-	8ddL	śpie-
.	.	.	8ccJ	.
4G	4b	-wa-	8ddL	-wa-
.	.	.	8eeJ	.
2C	2cc	-ją	2cc	-ją
=3	=3	=3	=3	=3
4G	4g	wszys-	4b	wszys-
8E	8b	-tek	8g	-tek
8F#	8a	świat	8a	świat
4G	8gL	u-	8bL	u-
.	8f#J	.	8aJ	.
4C	8aL	-we-	8ccL	-we-
.	8gJ	.	8bJ	.
=4	=4	=4	=4	=4
!!linebreak:original
4D	4g	-se-	4.a	-se-
4DD	4f#	-la-	.	.
.	.	.	8a	-la-
2GG	2g	-ją	2g	-ją
=5:|!|:	=5:|!|:	=5:|!|:	=5:|!|:	=5:|!|:
8GL	4b	we-	4dd	we-
8AJ	.	.	.	.
8GL	4b	-se-	4dd	-se-
8FJ	.	.	.	.
4E	8ccL	-le	8eeL	-le
.	8ddJ	.	8ffJ	.
4C	8ccL	o-	8eeL	o-
.	8bJ	.	8ddJ	.
=6	=6	=6	=6	=6
8FL	4a	-po-	4cc	-po-
8GJ	.	.	.	.
8FL	4a	-wia-	4cc	-wia-
8EJ	.	.	.	.
4D	8bL	-da-	8ddL	-da-
.	8ccJ	.	8eeJ	.
4BB	8bL	-ją	8ddL	-ją
.	8aJ	.	8ccJ	.
=7	=7	=7	=7	=7
!!linebreak:original
8EL	4g	wsze-	4b	wsze-
8FJ	.	.	.	.
8EL	4g	-mu	4b	-mu
8DJ	.	.	.	.
4C	8aL	świa-	8ccL	świa-
.	8bJ	.	8ddJ	.
4AA	8aL	-tu	8ccL	-tu
.	8gJ	.	8bJ	.
=8	=8	=8	=8	=8
8DL	4f#	znać	4a	znać
8EJ	.	.	.	.
8F#L	4f#	da-	4a	da-
8DJ	.	.	.	.
8GL	8gL	-wa-	8bL	-wa-
8F#J	8aJ	.	8ccJ	.
8EL	4b	-ją	4dd	-ją
8DJ	.	.	.	.
=9	=9	=9	=9	=9
4C	8aL	ko-	8ccL	ko-
.	8gJ	.	8bJ	.
8DL	8.gL	-lę-	4a	-lę-
8DDJ	.	.	.	.
.	16f#Jk	.	.	.
2GG	2g	-da.	2g	-da.
==:|!	==:|!	==:|!	==:|!	==:|!
*-	*-	*-	*-	*-
!!title: @{OTL}, @{GTL}: @{pag}, ed. @{ENC}
!!!pag: pp. 56v-57r
!!!GTL: Hymnbook E
!!!EFL: 
!!!YEM: Creative Commons CC/BY/NC/SA 4.0
!!!ENC: Marcin Konik
!!!END: 2015-05-07
!!!EED: Marcin Konik
!!!EEV: 
!!!ONB: Encoded in vim by Marcin Konik
!!!CharacterEncoding: utf-8
!!!RDF**kern: l=long note in original notation
!!!RDF**kern: i=editorial accidental
!!muse2ps: z14jc180F
